dist/svg/u1F321.svg

<?xml version="1.0" encoding="UTF-8"?><svg id="a" xmlns="http://www.w3.org/2000/svg" viewBox="0 0 40 40"><circle cx="14.054" cy="26.961" r="10.1" fill="#d0d6de"/><path d="M22.522-.47h0c2.866,0,5.192,2.326,5.192,5.192v31.171h-10.384V4.722c0-2.866,2.326-5.192,5.192-5.192Z" transform="translate(17.869 -10.56) rotate(42.472)" fill="#d0d6de"/><circle cx="14.054" cy="26.961" r="5.983" fill="#e32939"/><path d="M27.472,5.827h0c.944,0,1.71,.766,1.71,1.71v11.244h-3.419V7.536c0-.944,.766-1.71,1.71-1.71Z" transform="translate(15.516 -15.321) rotate(42.472)" fill="#f0f3f6"/><path d="M20.874,11.737h0c.944,0,1.71,.766,1.71,1.71v13.839h-3.419V13.446c0-.944,.766-1.71,1.71-1.71Z" transform="translate(18.652 -8.975) rotate(42.472)" fill="#e32939"/><rect width="40" height="40" fill="none"/></svg>

<svg id="Layer_1" data-name="Layer 1" xmlns="http://www.w3.org/2000/svg" viewBox="0 0 40 40"><defs><style>.cls-1{fill:#d0d6de;}.cls-2{fill:#e32939;}.cls-3{fill:#f0f3f6;}.cls-4{fill:none;}</style></defs><circle class="cls-1" cx="14.054" cy="26.961" r="10.1"/><path class="cls-1" d="M22.522-.47h0a5.192,5.192,0,0,1,5.192,5.192V35.893a0,0,0,0,1,0,0H17.33a0,0,0,0,1,0,0V4.722A5.192,5.192,0,0,1,22.522-.47Z" transform="translate(17.869 -10.56) rotate(42.472)"/><circle class="cls-2" cx="14.054" cy="26.961" r="5.983"/><path class="cls-3" d="M27.472,5.827h0a1.71,1.71,0,0,1,1.71,1.71V18.781a0,0,0,0,1,0,0H25.762a0,0,0,0,1,0,0V7.536A1.71,1.71,0,0,1,27.472,5.827Z" transform="translate(15.516 -15.321) rotate(42.472)"/><path class="cls-2" d="M20.874,11.737h0a1.71,1.71,0,0,1,1.71,1.71V27.285a0,0,0,0,1,0,0H19.165a0,0,0,0,1,0,0V13.446A1.71,1.71,0,0,1,20.874,11.737Z" transform="translate(18.652 -8.975) rotate(42.472)"/><rect class="cls-4" width="40" height="40"/></svg>
